X: 120
T: Tiao fenqiang
%%abc-version 2.0
%%abcx-abcm2ps-target-version 5.9.1 (29 Sep 2008)
%%abc-creator hum2abc beta
%%abcx-conversion-date 2013/10/02 07:52:29
%%abc-edited-by Helmut Schaffrath
%%humdrum-veritas 2240479631
%%humdrum-veritas-data 3250729696
%%continueall 1
%%barnumbers 0
L: 1/8
M: 2/4
K: F
F> G F G [I:setbarnb 1]| 
F DC2 | 
cc2f | 
f d/ c/B2 | 
f d c d | 
c AG2 | 
G F D F | 
G4 | 
G G/ A/c2 | 
B dA2 | 
G G c G | 
F4 | 
c c D F | 
G AG2 | 
D D F D | 
C4 |]  



